X: 24732
T: Mad Mr Macpherson
R: jig
M: 6/8
K: Aminor
A2e ede|B2f fef|gfd c2A|BAG BdB|
A2e ede|B2f fef|gfd c2A|1 Bd2 e3:|2 Bd2 e2f||
|:gfd cgB|fBd cBG|ABG ABd|e2d efa|
gfd cgB|fBd cBG|ABG ABd|Bd2 e2f:|

